X: 37233
T: Siuil A Ruin
R: barndance
M: 4/4
K: Aminor
|:c4 B4|A3 G E4|G3 E GAcB|AG-GE D2 CD|
EFED CDEF|GAGE c2 cB|ABAG EDEG|A4- A2 G/A/B|
c3 c B2 B2|A>BAG E3 E|G3 E GAcB|AG-GE D2 CD|
E>FED CDEF|GAGE c3 B|A>BAG ED EF/G/|A4- A2 z2:|

